X:580
T: Pigeons Wait for Easter
T: Aimsir Aerach na C\'asca
S: B.Breathnach:"Ceol Rince na hEireann" IV/117
Z: B.Black
L: 1/8
M: 4/4
R: reel
K: Edor
EFGA BE E2|BEdE BE E2|EFGA BE E2|ABAG FD D2 :|
B2 Bd e2 ef|afdf e2 d2|B2 Bd e2 ef|gefd B2 A2|
B2 Bd e2 ef|afdf e2 d2|B2 Bc d2 dB|ABAG FD D2 ||
